packages/icons/src/SVG/list.svg

<svg width="12" height="12" viewBox="0 0 12 12" fill="none" xmlns="http://www.w3.org/2000/svg">
<path d="M1 3C1.55228 3 2 2.55228 2 2C2 1.44772 1.55228 1 1 1C0.447715 1 0 1.44772 0 2C0 2.55228 0.447715 3 1 3Z" fill="#4C505B"/>
<path d="M12 1H4V3H12V1Z" fill="#4C505B"/>
<path d="M12 5H4V7H12V5Z" fill="#4C505B"/>
<path d="M4 9H12V11H4V9Z" fill="#4C505B"/>
<path d="M2 6C2 6.55228 1.55228 7 1 7C0.447715 7 0 6.55228 0 6C0 5.44772 0.447715 5 1 5C1.55228 5 2 5.44772 2 6Z" fill="#4C505B"/>
<path d="M1 11C1.55228 11 2 10.5523 2 10C2 9.44771 1.55228 9 1 9C0.447715 9 0 9.44771 0 10C0 10.5523 0.447715 11 1 11Z" fill="#4C505B"/>
</svg>

<!-- Generated by IcoMoon.io -->
<svg version="1.1" xmlns="http://www.w3.org/2000/svg" width="12" height="12" viewBox="0 0 12 12">
<title>list</title>
<path d="M1 3c0.552 0 1-0.448 1-1s-0.448-1-1-1c-0.552 0-1 0.448-1 1s0.448 1 1 1z"></path>
<path d="M12 1h-8v2h8v-2z"></path>
<path d="M12 5h-8v2h8v-2z"></path>
<path d="M4 9h8v2h-8v-2z"></path>
<path d="M2 6c0 0.552-0.448 1-1 1s-1-0.448-1-1c0-0.552 0.448-1 1-1s1 0.448 1 1z"></path>
<path d="M1 11c0.552 0 1-0.448 1-1s-0.448-1-1-1c-0.552 0-1 0.448-1 1s0.448 1 1 1z"></path>
</svg>
